public/diamond.svg

<svg width="107" height="113" viewBox="0 0 107 113" fill="none" xmlns="http://www.w3.org/2000/svg">
<g clip-path="url(#clip0_640_4294)">
<path d="M81.25 27.1667C81.8961 27.1668 82.5339 27.3127 83.1157 27.5935C83.6976 27.8744 84.2085 28.2831 84.6104 28.789L84.928 29.2525L97.803 50.7108C98.2246 51.4145 98.4358 52.2242 98.4114 53.0441C98.3871 53.8641 98.1283 54.6599 97.6656 55.3372L97.3223 55.7793L60.7144 96.6917C60.0346 97.3852 59.2233 97.936 58.3279 98.3119C57.4325 98.6877 56.4711 98.881 55.5 98.8805C53.7834 98.8805 52.1311 98.2797 50.7363 97.0909L50.1569 96.5501L13.6777 55.7793C13.1289 55.1669 12.7676 54.4098 12.6367 53.598C12.5059 52.7862 12.611 51.9539 12.9396 51.2001L13.1971 50.7065L26.1279 29.1538L26.4025 28.7675C26.599 28.5232 26.8221 28.3015 27.0677 28.1066L27.4497 27.832L27.8274 27.6174L28.0419 27.5187L28.2994 27.4114L28.7672 27.274L29.2479 27.1882L29.75 27.1667H81.25ZM43.1143 44.0888C42.1386 43.5045 40.971 43.3314 39.8678 43.6074C38.7645 43.8834 37.816 44.586 37.2304 45.5608L34.6554 49.8525L34.3979 50.3503C34.0694 51.1077 33.9664 51.9438 34.1011 52.7583C34.2358 53.5728 34.6026 54.3311 35.1575 54.9424L43.7409 64.3841L44.1271 64.7617C44.9215 65.4416 45.9368 65.8079 46.9823 65.7921C48.0277 65.7763 49.0315 65.3794 49.805 64.6759L50.1784 64.2897C50.8582 63.4952 51.2246 62.48 51.2088 61.4345C51.1929 60.389 50.796 59.3853 50.0925 58.6118L43.6507 51.5305L44.5863 49.9727L44.8224 49.5306C45.2536 48.5718 45.3179 47.488 45.0031 46.4849C44.6882 45.4818 44.0161 44.6292 43.1143 44.0888Z" fill="white"/>
</g>
<g clip-path="url(#clip1_640_4294)">
<path d="M24.3336 79C24.459 79 24.5829 79.0283 24.6959 79.0829C24.8088 79.1374 24.9081 79.2168 24.9861 79.315L25.0478 79.405L27.5478 83.5717C27.6296 83.7083 27.6706 83.8655 27.6659 84.0247C27.6612 84.1839 27.6109 84.3385 27.5211 84.47L27.4544 84.5558L20.3461 92.5C20.2141 92.6347 20.0566 92.7416 19.8827 92.8146C19.7088 92.8876 19.5221 92.9251 19.3336 92.925C19.0003 92.925 18.6794 92.8083 18.4086 92.5775L18.2961 92.4725L11.2128 84.5558C11.1062 84.4369 11.036 84.2899 11.0106 84.1323C10.9852 83.9746 11.0056 83.813 11.0694 83.6667L11.1194 83.5708L13.6303 79.3858L13.6836 79.3108C13.7217 79.2634 13.7651 79.2203 13.8128 79.1825L13.8869 79.1292L13.9603 79.0875L14.0019 79.0683L14.0519 79.0475L14.1428 79.0208L14.2361 79.0042L14.3336 79H24.3336ZM16.9286 82.2858C16.7391 82.1724 16.5124 82.1388 16.2982 82.1924C16.084 82.2459 15.8998 82.3824 15.7861 82.5717L15.2861 83.405L15.2361 83.5017C15.1723 83.6487 15.1523 83.8111 15.1785 83.9692C15.2046 84.1274 15.2758 84.2746 15.3836 84.3933L17.0503 86.2267L17.1253 86.3C17.2795 86.432 17.4767 86.5031 17.6797 86.5001C17.8827 86.497 18.0776 86.4199 18.2278 86.2833L18.3003 86.2083C18.4323 86.0541 18.5034 85.8569 18.5003 85.6539C18.4973 85.4509 18.4202 85.256 18.2836 85.1058L17.0328 83.7308L17.2144 83.4283L17.2603 83.3425C17.344 83.1563 17.3565 82.9459 17.2953 82.7511C17.2342 82.5563 17.1037 82.3908 16.9286 82.2858Z" fill="white"/>
</g>
<path d="M79.0009 0C79.189 3.26205e-06 79.3748 0.0427253 79.5443 0.12498C79.7138 0.207234 79.8626 0.326898 79.9796 0.475045L80.0721 0.610772L83.8222 6.89443C83.945 7.10048 84.0065 7.3376 83.9994 7.5777C83.9924 7.8178 83.917 8.05083 83.7822 8.24919L83.6822 8.37864L73.0195 20.3591C72.8215 20.5621 72.5852 20.7234 72.3244 20.8335C72.0636 20.9436 71.7835 21.0002 71.5007 21C71.0007 21 70.5194 20.8241 70.1131 20.4759L69.9444 20.3176L59.3191 8.37864C59.1593 8.19932 59.054 7.97761 59.0159 7.73989C58.9778 7.50216 59.0084 7.25844 59.1041 7.0377L59.1791 6.89318L62.9455 0.581867L63.0255 0.468761C63.0827 0.397204 63.1477 0.33229 63.2192 0.275224L63.3305 0.194794L63.4405 0.131957L63.503 0.103052L63.578 0.071634L63.7142 0.0314184L63.8542 0.00628381L64.0005 0H79.0009ZM67.8931 4.9553C67.6089 4.78421 67.2688 4.7335 66.9475 4.81433C66.6262 4.89515 66.3499 5.10089 66.1793 5.38636L65.4293 6.64309L65.3543 6.78887C65.2586 7.01066 65.2286 7.25549 65.2678 7.494C65.3071 7.7325 65.4139 7.95457 65.5755 8.13357L68.0756 10.8984L68.1881 11.009C68.4195 11.208 68.7152 11.3153 69.0197 11.3107C69.3242 11.3061 69.6166 11.1899 69.8419 10.9838L69.9506 10.8707C70.1487 10.6381 70.2554 10.3408 70.2508 10.0347C70.2462 9.72851 70.1306 9.43459 69.9256 9.20808L68.0493 7.13447L68.3219 6.67828L68.3906 6.54883C68.5162 6.26806 68.535 5.95069 68.4432 5.65696C68.3515 5.36322 68.1558 5.11354 67.8931 4.9553Z" fill="white"/>
<defs>
<clipPath id="clip0_640_4294">
<rect width="103" height="103" fill="white" transform="translate(4 10)"/>
</clipPath>
<clipPath id="clip1_640_4294">
<rect width="37" height="37" fill="white" transform="translate(0 62)"/>
</clipPath>
</defs>
</svg>

<svg xmlns="http://www.w3.org/2000/svg" width="107" height="113" fill="none" xmlns:v="https://vecta.io/nano"><g clip-path="url(#A)"><path d="M81.25 27.167c.646 0 1.284.146 1.866.427a4.29 4.29 0 0 1 1.495 1.196l.318.463 12.875 21.458a4.29 4.29 0 0 1-.137 4.626l-.343.442-36.608 40.912c-.68.694-1.491 1.244-2.386 1.62a7.3 7.3 0 0 1-2.828.569c-1.717 0-3.369-.601-4.764-1.79l-.579-.541-36.479-40.771a4.29 4.29 0 0 1-.738-4.579l.258-.494 12.931-21.553.275-.386a4.22 4.22 0 0 1 .665-.661l.382-.275.378-.215.214-.099.258-.107.468-.137.481-.086.502-.021h51.5zM43.114 44.089a4.29 4.29 0 0 0-5.884 1.472l-2.575 4.292-.258.498a4.29 4.29 0 0 0 .76 4.592l8.583 9.442.386.378a4.29 4.29 0 0 0 5.678-.086l.373-.386a4.29 4.29 0 0 0-.086-5.678l-6.442-7.081.936-1.558.236-.442a4.29 4.29 0 0 0-1.708-5.442z" fill="#fff"/></g><g clip-path="url(#B)"><path d="M24.334 79c.125 0 .249.028.362.083s.212.134.29.232l.062.09 2.5 4.167c.082.137.123.294.118.453s-.055.314-.145.445l-.067.086-7.108 7.944c-.132.135-.29.242-.463.315s-.361.111-.549.11a1.41 1.41 0 0 1-.925-.347l-.113-.105-7.083-7.917c-.107-.119-.177-.266-.202-.424s-.005-.319.059-.466l.05-.096 2.511-4.185.053-.075c.038-.047.082-.091.129-.128l.074-.053.073-.042.042-.019.05-.021.091-.027.093-.017.098-.004h10zm-7.405 3.286c-.189-.113-.416-.147-.63-.093s-.398.19-.512.379l-.5.833-.05.097c-.064.147-.084.309-.058.468a.83.83 0 0 0 .205.424l1.667 1.833.075.073c.154.132.351.203.554.2s.398-.08.548-.217l.073-.075c.132-.154.203-.351.2-.554s-.08-.398-.217-.548l-1.251-1.375.182-.303.046-.086c.084-.186.096-.397.035-.591s-.192-.36-.367-.465z" fill="#fff"/></g><path d="M79.001 0c.188 0 .374.043.543.125a1.25 1.25 0 0 1 .435.35l.093.136 3.75 6.284a1.26 1.26 0 0 1-.04 1.355l-.1.129-10.663 11.98c-.198.203-.434.364-.695.474s-.541.167-.824.166a2.11 2.11 0 0 1-1.388-.524l-.169-.158L59.319 8.379a1.26 1.26 0 0 1-.303-.639c-.038-.238-.008-.481.088-.702l.075-.145L62.946.582l.08-.113a1.23 1.23 0 0 1 .194-.194l.111-.08.11-.063.063-.029.075-.031.136-.04.14-.025.146-.006h15zM67.893 4.955c-.284-.171-.624-.222-.946-.141a1.25 1.25 0 0 0-.768.572l-.75 1.257-.075.146c-.096.222-.126.467-.087.705a1.26 1.26 0 0 0 .308.64l2.5 2.765.113.111c.231.199.527.306.832.302s.597-.121.822-.327l.109-.113a1.26 1.26 0 0 0-.025-1.663l-1.876-2.074.273-.456.069-.129c.126-.281.144-.598.053-.892s-.287-.543-.55-.702z" fill="#fff"/><defs><clipPath id="A"><path fill="#fff" transform="translate(4 10)" d="M0 0h103v103H0z"/></clipPath><clipPath id="B"><path fill="#fff" transform="translate(0 62)" d="M0 0h37v37H0z"/></clipPath></defs></svg>
